static/fa/svgs/solid/photo-film.svg

<svg xmlns="http://www.w3.org/2000/svg" viewBox="0 0 640 512"><!--! Font Awesome Free 6.1.1 by @fontawesome - https://fontawesome.com License - https://fontawesome.com/license/free (Icons: CC BY 4.0, Fonts: SIL OFL 1.1, Code: MIT License) Copyright 2022 Fonticons, Inc.--><path d="M352 432c0 8.836-7.164 16-16 16H176c-8.838 0-16-7.164-16-16V128H48c-26.51 0-48 21.5-48 48v288c0 26.51 21.49 48 48 48h416c26.51 0 48-21.49 48-48v-80H352v48zm-248 7c0 4.969-4.031 9-9 9H65c-4.969 0-9-4.031-9-9v-30c0-4.969 4.031-9 9-9h30c4.969 0 9 4.031 9 9v30zm0-104c0 4.969-4.031 9-9 9H65c-4.969 0-9-4.031-9-9v-30c0-4.969 4.031-9 9-9h30c4.969 0 9 4.031 9 9v30zm0-104c0 4.969-4.031 9-9 9H65c-4.969 0-9-4.031-9-9v-30c0-5 4.03-9 9-9h30c4.969 0 9 4.031 9 9v30zm304 178c0-4.969 4.031-9 9-9h30c4.969 0 9 4.031 9 9v30c0 4.969-4.031 9-9 9h-30c-4.969 0-9-4.031-9-9v-30zM591.1 0h-352c-25.6 0-48 21.49-48 48v256c0 26.51 21.49 48 48 48h352c26.51 0 48-21.49 48-48V48c.9-26.51-20.6-48-48-48zm-288 64c17.68 0 32 14.33 32 32s-14.32 32-32 32c-16.8 0-32-14.3-32-32s15.2-32 32-32zm271 215.6c-2.8 5.2-8.2 8.4-14.1 8.4H271.1c-6 0-10.6-3.4-13.4-8.7-2.7-5.4-2.2-11.9 1.4-16.7l70-96c3-4.2 7.8-6.6 12-6.6 5.11 0 9.914 2.441 12.93 6.574l22.35 30.66 62.74-94.11C442.1 98.67 447.1 96 453.3 96c5.348 0 10.34 2.672 13.31 7.125l106.7 160c3.29 4.875 3.59 11.175.79 16.475z"/></svg>

<svg xmlns="http://www.w3.org/2000/svg" viewBox="0 0 640 512"><!--! Font Awesome Free 6.1.1 by @fontawesome - https://fontawesome.com License - https://fontawesome.com/license/free (Icons: CC BY 4.0, Fonts: SIL OFL 1.1, Code: MIT License) Copyright 2022 Fonticons, Inc. --><path d="M352 432c0 8.836-7.164 16-16 16H176c-8.838 0-16-7.164-16-16L160 128H48C21.49 128 .0003 149.5 .0003 176v288c0 26.51 21.49 48 48 48h416c26.51 0 48-21.49 48-48L512 384h-160L352 432zM104 439c0 4.969-4.031 9-9 9h-30c-4.969 0-9-4.031-9-9v-30c0-4.969 4.031-9 9-9h30c4.969 0 9 4.031 9 9V439zM104 335c0 4.969-4.031 9-9 9h-30c-4.969 0-9-4.031-9-9v-30c0-4.969 4.031-9 9-9h30c4.969 0 9 4.031 9 9V335zM104 231c0 4.969-4.031 9-9 9h-30c-4.969 0-9-4.031-9-9v-30C56 196 60.03 192 65 192h30c4.969 0 9 4.031 9 9V231zM408 409c0-4.969 4.031-9 9-9h30c4.969 0 9 4.031 9 9v30c0 4.969-4.031 9-9 9h-30c-4.969 0-9-4.031-9-9V409zM591.1 0H239.1C213.5 0 191.1 21.49 191.1 48v256c0 26.51 21.49 48 48 48h352c26.51 0 48-21.49 48-48v-256C640 21.49 618.5 0 591.1 0zM303.1 64c17.68 0 32 14.33 32 32s-14.32 32-32 32C286.3 128 271.1 113.7 271.1 96S286.3 64 303.1 64zM574.1 279.6C571.3 284.8 565.9 288 560 288H271.1C265.1 288 260.5 284.6 257.7 279.3C255 273.9 255.5 267.4 259.1 262.6l70-96C332.1 162.4 336.9 160 341.1 160c5.11 0 9.914 2.441 12.93 6.574l22.35 30.66l62.74-94.11C442.1 98.67 447.1 96 453.3 96c5.348 0 10.34 2.672 13.31 7.125l106.7 160C576.6 268 576.9 274.3 574.1 279.6z"/></svg>
